X:269
T:Chaudes de Durhamnoise
Z:Philippe Murphy 2018-05-20
S:Gabrielle Létourneau
M:4/4
L:1/8
K:Em
|: EFGF EFGF | E2 B,2 B,2 GF | EFGF EFGF | EBBB BGAB |
c3c cBAc | B2GB EGBG | A2FA DFAF |1 GFED E2GF :|2 GFED E3A |
|: B2eB BeBB | eBBe g2e2 | c2gc cgcc | gccg a2g2 |
d2ad dadd | adda b2a2 | fgab agfa |1 gfed e3A :|2 gfed e2GF ||
